release/img/icons/tb_repeat.svg

<svg width="22" height="22" viewBox="0 0 22 22" fill="none" xmlns="http://www.w3.org/2000/svg">
<path d="M11 7.18182V9.09091L13.5 6.54545L11 4V5.90909C8.2375 5.90909 6 8.18727 6 11C6 11.9991 6.2875 12.9282 6.775 13.7109L7.6875 12.7818C7.40625 12.2536 7.25 11.6427 7.25 11C7.25 8.89364 8.93125 7.18182 11 7.18182ZM15.225 8.28909L14.3125 9.21818C14.5875 9.75273 14.75 10.3573 14.75 11C14.75 13.1064 13.0687 14.8182 11 14.8182V12.9091L8.5 15.4545L11 18V16.0909C13.7625 16.0909 16 13.8127 16 11C16 10.0009 15.7125 9.07182 15.225 8.28909V8.28909Z" fill="white"/>
</svg>

<svg width="22" height="22" fill="none" xmlns="http://www.w3.org/2000/svg"><path d="M11 7.182V9.09l2.5-2.546L11 4v1.91c-2.762 0-5 2.277-5 5.09 0 1 .287 1.928.775 2.71l.912-.928A3.79 3.79 0 017.25 11c0-2.106 1.681-3.818 3.75-3.818zm4.225 1.107l-.912.93c.274.534.437 1.138.437 1.781 0 2.106-1.681 3.818-3.75 3.818V12.91l-2.5 2.545L11 18v-1.91c2.762 0 5-2.277 5-5.09 0-1-.287-1.928-.775-2.71z" fill="#fff"/></svg>
